X: 1891
T: Unutturamaz Seni Hiçbir Şey
C: Ekrem Güyer
O: Turkey
F: http://compmusic.upf.edu/node/140
N: nihavent--sarki--duyek--unutturamaz_seni--ekrem_guyer
N: makam= nihavent
N: form= sarki
N: usul= duyek = 8/4
M: 8/4
L: 1/16
K: C _B _e  
Q: 1/4=156
%%MIDI tuningsystem comma53
z2 D2 E2 ^F2 G2 A2 B4  | z2 A2 B2 c2 de d2 {e}d4  | \
w:   |   | 
z2 d2 e2 d2 c2 B2 A4  | 
w:   | 
z2 e2 d2 c2 B2 A2 G4  | z2 D2 E2 ^F2 G2 A2 B4  | \
w:   |   | 
z2 A2 B2 c2 de d2 {e}d4  | 
w:   | 
z2 d2 e2 d2 c2 B2 A4  | z2 e2 d2 c2 B2 A2 G4  | \
w:   |   | 
d2 g4 f2 e3d f2 ed  | 
w:  U nut *  *  *  tu ra  | 
d6 de dc Bc d4  | z2 d2 c2 B2 A2 Bc d3/2c/ BA  | \
w:  maz  SAZ  |  se *  *  ni  hiç *  bir   | 
B6 de dc BA B4  | 
w:  şey  SAZ  | 
c2 d4 _1/4e2 f2 ef g3/2f/ g2  | ed d8-d2 e3/2d/ e2  | \
w:  u nu *  tul *  *  sam   |  da  *  ben    | 
d2 b2 a2 g2 f2 _1/4ef gf g2  | 
w:  u nu *  *  tul *  *  sam   | 
ed d4 de dc BA G4  | d2 g4 f2 e3d f2 ed  | \
w:  da  *  ben   SAZ  |  U nut *  *  *  tu ra  | 
d6 de dc Bc d4  | 
w:  maz  SAZ  | 
z2 d2 c2 B2 A2 Bc d3/2c/ BA  | B6 de dc BA B4  | \
w:  se *  *  ni  hiç *  bir   |  şey  SAZ  | 
c2 d4 _1/4e2 f2 ef g3/2f/ g2  | 
w:  u nu *  tul *  *  sam   | 
ed d8-d2 e3/2d/ e2  | d2 b2 a2 g2 f2 _1/4ef gf g2  | \
w:  da  *  ben    |  u nu *  *  tul *  *  sam   | 
ed d4 de dc Bc d4  | 
w:  da  *  ben   SAZ  | 
z2 d4 ed c2 {d}c_1/4B c4  | z2 f2 e2 d2 c2 dc BA B2  | \
w:  Her  yer *  de  *  *  *  sen   |  her  *  şey de  *  *  sen   | 
z2 B2 A2 G2 G2 ed {e}d4  | 
w:  bil *  *  mem  *  *  *  ki   | 
A2 B2 A2 G2 ^F2 G2 A2 {B}AG  | G6 de dc Bc d4  | \
w:  na sıl  *  *  söy *  *  *  le  |  sem   SAZ  | 
z2 d4 ed c2 {d}c_1/4B c4  | 
w:  Her  yer *  de  *  *  *  sen   | 
z2 f2 e2 d2 c2 dc BA B2  | z2 B2 A2 G2 G2 ed {e}d4  | \
w:  her  *  şey de  *  *  sen   |  bil *  *  mem  *  *  *  ki   | 
A2 B2 A2 G2 ^F2 G2 A2 {B}AG  | 
w:  na sıl  *  *  söy *  *  *  le  | 
G6 ga f_1/4e/d/ ef g4  | z2 f4 g2 g4 g4  | \
w:  sem   SAZ  |  Bir  sis li   | 
a2 b2 a2 g2 f2 g2 a2 {b}ag  | 
w:  ha zan  *  *  *  *  ke *  si  | 
g8-g2 a2 f4  | z2 ag f2 g2 a6 g2  | a2 c'b a2 g2 f2 _1/4ef g2 _ed  | 
w:  lir   |  ru *  *  *  hum   |  e ğer  *  *  *  gör *  *  *  me  | 
d6 ga f_1/4e/d/ ef g4  | z2 f4 g2 g4 g4  | \
w:  sem   SAZ  |  Bir  sis li   | 
a2 b2 a2 g2 f2 g2 a2 {b}ag  | 
w:  ha zan  *  *  *  *  ke *  si  | 
g8-g2 a2 f4  | z2 ag f2 g2 a6 g2  | a2 c'b a2 g2 f2 _1/4ef g2 _ed  | 
w:  lir   |  ru *  *  *  hum   |  e ğer  *  *  *  gör *  *  *  me  | 
d6 de dc Bc d4  | z2 d4 ed c2 {d}c_1/4B c4  | \
w:  sem   SAZ  |  Her  yer *  de  *  *  *  sen   | 
z2 f2 e2 d2 c2 dc BA B2  | 
w:  her  *  şey de  *  *  sen   | 
z2 B2 A2 G2 G2 ed {e}d4  | A2 B2 A2 G2 ^F2 G2 A2 {B}AG  | \
w:  bil *  *  mem  *  *  *  ki   |  na sıl  *  *  söy *  *  *  le  | 
G6 de dc Bc d4  | 
w:  sem   SAZ  | 
z2 d4 ed c2 {d}c_1/4B c4  | z2 f2 e2 d2 c2 dc BA B2  | \
w:  Her  yer *  de  *  *  *  sen   |  her  *  şey de  *  *  sen   | 
z2 B2 A2 G2 G2 ed {e}d4  | 
w:  bil *  *  mem  *  *  *  ki   | 
A2 B2 A2 G2 ^F2 G2 A2 {B}AG  | G6 |
w:  na sıl  *  *  söy *  *  *  le  |  sem    | 


